X: 4195
T: Blue-eyed Lassie, The
R: reel
M: 4/4
K: Dmajor
DFAF BFAd|DFFA BEEF|DFAF BFA2|faAc edd2:|
dffd ceec|(3Bcd AF GFED|A,DFA DFAd|fadf e2fg|
abaf gfed|edfd edBd|AdFd EdFd|faeg fdd2||

